X: 21794
T: King's Lament, The
R: waltz
M: 3/4
K: Aminor
|:G2|"Am"E2 [A3A3] B|{AB}[A2A2] G2 E2|"C"c2 d2 e2|"G"{de}d4 cd|"Am"e2 a2 {ga}g2|"C"e2 d2 c2|"G"{Bc}B2 A2 G2|"Em"G2 E2 D2|
"Am"E2 [A3A3] B|{AB}[A2A2] G2 E2|"C"c2 d2 e2|"G"{de}d4 cd|"Am"e2 a2 {ga}g2|"C"e2 d2 c2|"G"B2 A2 G2|"Am"[A4A4]:|
g2|"Am"a b3 a2|"G"{ga}g2 e2 d2|"C"c2 d2 e2|g4 {ag}eg|"Am"a2 {ga}g2 e2|"G"d2 e2 d2|"Am"c2 A2 G2|"Em"G2 E2 D2|
"Am"E2 [A3A3] B|{AB}[A2A2] G2 E2|"C"c2 d2 e2|"G"{de}d4 cd|"Am"e2 a2 {ga}g2|"C"e2 d2 c2|"G"B2 A2 G2|"Am" [A4A4] g2|
"Am"a b3 a2|"G"{ga}g2 e2 d2|"C"c2 d2 e2|g4 {ag}eg|"Am"a2 {ga}g2 e2|"G"d2 e2 d2|"Am"c2 A2 G2|"C"G2 c2 G2|
"Am"A2 c2 G2|A2 c2 G2|A2 c2 d2|"C" e2 d2 c2|"G"e g3 a2|"Em"{ga}g2 e2 d2|"Am"c2 A2 G2|[A4A4]||

